X:243
T:Jack Wilson
S:Bruce Molsky, Edinburgh February 1999
N:From the playing of John Salyer.
N:Drone the D string throughout B part.
Z:Nigel Gatherer
M:4/4
L:1/8
K:D
ef|g2 ga gedg|edeg a2 a2|a g2 a gedg|edBd A2 ef|
g2 ga gedg|egab a2 ef|gaba gedg|edBd A2 F2|]
A2 Bc defd|edBc d2 d2|A2 Bc defd|edBd A2 F2|
A2 Bc defd|edBc d2 ef|g2 ga gedg|edBd A2 F2:|
<end>
<start>
